public/assets/images/icons/grey/export/powerfolder.svg

<svg width="16" height="16" xmlns="http://www.w3.org/2000/svg" viewBox="0 0 16 16" shape-rendering="geometricPrecision" fill="#6e6e6e"><defs><mask id="a"><rect fill="#fff" width="100%" height="100%"/><path d="M13.848-1.1L12.051.695l.286.287A4.455 4.455 0 0 0 9.23 5.236v.987h2.626v-.988c0-.491.191-.954.538-1.302l.03-.03 1.425 1.421 3.212-3.213L13.848-1.1z" fill="#000"/></mask></defs><path d="M13.848-.04l-.736.735.821.821h-.234l-.156.008A3.722 3.722 0 0 0 9.98 5.235v.237h1.126v-.237c0-.691.27-1.343.759-1.833a2.579 2.579 0 0 1 1.833-.759h.3l-.886.887.735.734L16 2.111 13.848-.04z" fill="#cb1800"/><g mask="url(#a)"><path d="M10.128 6.094c-.864-.014-1.742-.014-2.921 0-1.18.013-1.701.356-1.866.932S4.367 10.4 4.367 10.4H5.78L6.562 8s2.757-.014 4.032-.014 1.193-.411 1.221-1.001-.823-.878-1.687-.891zm.809.946c-.055.288-.192.439-.85.425-.658-.014-3.429 0-3.429 0s.027-.206.11-.48c.082-.274.247-.37 1.015-.37s1.783.027 2.345.027c.562 0 .864.11.809.398z"/><path d="M8.001 1.79a6.212 6.212 0 0 0 0 12.421 6.21 6.21 0 0 0 0-12.421zm0 11.163a4.961 4.961 0 0 1-4.955-4.951 4.962 4.962 0 0 1 4.955-4.956 4.96 4.96 0 0 1 4.953 4.956 4.959 4.959 0 0 1-4.953 4.951z"/></g></svg>

<?xml version="1.0"?><!DOCTYPE svg PUBLIC "-//W3C//DTD SVG 1.1//EN" "http://www.w3.org/Graphics/SVG/1.1/DTD/svg11.dtd"><svg width="16px" height="16px" xmlns="http://www.w3.org/2000/svg" viewBox="0 0 16 16" shape-rendering="geometricPrecision" fill="#6e6e6e"><defs><mask id="export-path"><rect fill="#fff" width="100%" height="100%"/><path d="M13.848-1.1l-1.797,1.795l0.286,0.287c-1.812,0.575-3.107,2.263-3.107,4.254v0.987h2.626 V5.235c0-0.491,0.191-0.954,0.538-1.302c0.01-0.01,0.021-0.02,0.03-0.03l1.425,1.421l3.212-3.213L13.848-1.1z" fill="#000"/></mask></defs><path id="export" display="inline" d="M13.848-0.04l-0.736,0.735l0.821,0.821h-0.234 l-0.156,0.008c-1.978,0.084-3.563,1.714-3.563,3.711v0.237h1.126V5.235c0-0.691,0.27-1.343,0.759-1.833 c0.49-0.489,1.141-0.759,1.833-0.759h0.237V2.643h0.063L13.112,3.53l0.735,0.734L16,2.111L13.848-0.04z" fill="#cb1800"/><g mask="url(#export-path)"><g><g><path d="M10.128,6.094c-0.864-0.014-1.742-0.014-2.921,0C6.027,6.107,5.506,6.45,5.341,7.026S4.367,10.4,4.367,10.4H5.78 L6.562,8c0,0,2.757-0.014,4.032-0.014s1.193-0.411,1.221-1.001S10.992,6.107,10.128,6.094z M10.937,7.04 c-0.055,0.288-0.192,0.439-0.85,0.425c-0.658-0.014-3.429,0-3.429,0s0.027-0.206,0.11-0.48c0.082-0.274,0.247-0.37,1.015-0.37 s1.783,0.027,2.345,0.027C10.69,6.642,10.992,6.752,10.937,7.04z"/></g></g><path d="M8.001,1.79c-3.43,0-6.211,2.781-6.211,6.213c0,3.427,2.78,6.206,6.211,6.208 c3.429-0.002,6.208-2.78,6.209-6.208C14.21,4.571,11.43,1.79,8.001,1.79z M8.001,12.953c-2.736-0.005-4.949-2.218-4.955-4.951 c0.006-2.738,2.219-4.951,4.955-4.956c2.735,0.005,4.948,2.218,4.953,4.956C12.949,10.736,10.736,12.948,8.001,12.953z"/></g></svg>
